X:1
T:Voglio andare a letto
T:Felice Giardini (1716-1796)
T:Voglio andare a letto
T:Glee in 3 voices
T:Copyright © 
T:Copyright © 
T:Copyright © 
C:Felice Giardini (1716-1796)
Z:Copyright ©
%%score [ 1 2 3 ]
L:1/8
M:3/4
K:Db
V:1 treble nm="P1" snm="S."
V:2 treble nm="P2" snm="S."
V:3 bass nm="P3" snm="B."
V:1
"^Transposed down a tone" z6 | z6 | z6 | z6 | z6 | f4 e2 |{Te} d4 c2 | f4 e2 |{Te} d4 c2 | %9
w: |||||Va- di|* re|buo- na|* te.|
 d2 c2 B2 | F6 | d4 _c2 | B2 =c2 =d2 | e4 d2 | cB A4 | f4 e2 | (d2 e2) f2 | ge d2 c2 | d6 | %19
w: Va- do\_a dor-|mir.|Sen- to\_il|son- no chè|m'as- sas-|si- * na.|Buo- na|not- * te.|Va- * do\_a dor-|mir.|
!p! B4 A2 | B4 A2 | B4 A2 | B4!f! A2 | f4 e2 | (d2 e2) f2 | (ge) d2 c2 | d6 :: A4 d2 | (3(fed) d4 | %29
w: Vo- glio\_an-|da- re\_a|let- to\_a|let- to.|Buo na|not- * te,|va- * do\_a dor-|mir.|Buo- na-|not- * * te,|
 z6 | z6 | d4 d2 | d2 c2 z2 | _c2 B2 A2 | GF G4 | z6 | z6 | e4 e2 | e2 =d2 z2 | _d2 c2 B2 | AG A4 | %41
w: ||sen- to\_il|son- no|che m'as- sas-|si- * na,|||sen- to\_il|son- no|chè m'as- sas-|si- * na,|
 e4 e2 | d4 d2 | d4 d2 | (d2!p! c4) | B4 d2 | (=A2 B2) d2 | =A2 B2 d2 |!f! D2 C2 B,2 | F6 | f4 d2 | %51
w: vog- lio\_an-|da- re|a dor-|mir, _|vog- lio|an- * da-|re vog- lio\_an|da- re\_a dor-|mir.|Buo- na|
 e4 c2 | d2 c2 B2 |!p! c6 | f4 d2 | e4 c2 | d2 c2 B2 | !fermata!c6 | F4 B2 | (dc) B2 z2 | B4 d2 | %61
w: not- te,|va- do\_a dor-|mir.|Buo- na|not- te,|vog- lio par-|tir.|Buo- na|not- * te,|bu- na|
 (fe)!f! d4 | f4 e2 | (d2 c2) B2 | (ce) d2 c2 |!p! B6 | F4 B2 | (dc) B4 | B4 d2 | (fe)!f! d4 | %70
w: not- * te,|bo- na|not- * te|va- * do\_a dor-|mir.|Buo- na|not- * te.|Buo- na|not- * te.|
 f4 e2 | (d2 c2) B2 | ce d2 c2 | B6 | z6 | ce d2 c2 | B6 :| %77
w: Buo- na|not- * te|va- * do\_a dor-|mir,||va- * do\_a dor-|mir.|
V:2
 z6 | z6 | z6 | z6 | z6 | d4 c2 |{c} B4 =A2 | d4 c2 |{c} B4 =A2 | B2 =G2 G2 | F6 | z2 A2 A2 | %12
w: |||||Va- di|* re|buo- na|* te.|Va- do\_a dor|mir.|Sen- to\_il|
 G2 G2 F2 | =G4 B2 | E2 F4 | A4 c2 | d4 d2 | BG F2 E2 | F6 |!p! G4 F2 | G4 F2 | G4 F2 | G4!f! F2 | %23
w: son- no chè|m'as- sas-|si- na.|Buo- na|not- te.|Va- * do\_a dor-|mir.|Vo- glio\_an-|da- re\_a|let- to\_a|let- to.|
 A4 c2 | d4 d2 | (BG) F2 E2 | F6 :: z6 | z6 | D6 | E6 | (F2 G2) A2 | (G2 A2) B2 | A2 B2 _c2 | B6 | %35
w: Buo- na|not- te,|va- * do\_a dor-|mir.|||Vog-|lio\_an-|da- * re\_a|let- * to,|vog- lio par-|tir,|
 E6 | F6 | =G2 A2 B2 | (A2 B2) c2 | B2 c2 d2 | c6 | c4 c2 | F4 F2 | B4 B2 | (B2 =A4) |!p! z6 | %46
w: vog-|lio\_an-|da- re a|let- * to,|vog- lio par-|tir,|vog- lio\_an-|da- re|a dor-|mir, _||
 _G2 F2 F2 | G2 F2 F2 |!f! D2 C2 B,2 | F6 | d4 B2 | c4 =A2 | B2 =A2 B2 |!p! =A6 | d4 B2 | c4 =A2 | %56
w: vog- lio an-|da- re, an|da- re\_a dor-|mir.|Buo- na|not- te,|va- do\_a dor-|mir.|Buo- na|not- te,|
 B2 =A2 B2 | !fermata!=A6 | z6 | z6 | F4 B2 | (dc)!f! B4 | d4 c2 | (B2 =A2) B2 | (ec) B2 =A2 | B6 | %66
w: vog- lio par-|tir.|||Buo- na|not- * te,|bo- na|not- * te|va- * do\_a dor-|mir.|
 z6 | z6 | F4 B2 | (dc)!f! B4 | d4 c2 | (B2 =A2) B2 | ec B2 =A2 | B6 | z6 | ec B2 =A2 | B6 :| %77
w: ||Buo- na|not- * te.|Buo- na|not- * te|va- * do\_a dor-|mir,||va- * do\_a dor-|mir.|
V:3
 B,4 D2 | =A,2 B,2 D2 | (=A,2 B,2) D2 | D,2 C,2 B,,2 | F,6 | F,4 F,2 | F,2 F,2 F,2 | F,4 F,2 | %8
w: Vog- lio|an- da- re\_a|let- * to.|Vog- lio par-|tir.|Sen- to\_il|son- no che|m'as- sas-|
 F,4 F,2 | B,2 E,2 =E,2 | F,6 | z2 D,2 F,2 | (G,2 A,2) B,2 | z2 E,2 =G,2 | (A,2 B,2) C2 | D,4 E,2 | %16
w: si- na.|Vo- glio par|mir.|Buo- na|not- * te,|buo- na|not- * te,|buo- na|
 (F,2 G,2) A,2 | G,B, A,2 A,,2 | D,6 |!p! D,4 D,2 | D,2 D,2 D,2 | D,4 D,2 | D,C,!f! D,4 | D,4 E,2 | %24
w: not- * te|va- * do\_a dor-|mir.|Sen- to\_il|son- no che|m'as- sas-|si- * na.|Buo- na|
 (F,2 G,2) A,2 | (G,B,) A,2 A,,2 | D,6 :: z6 | z6 | z6 | z6 | D,6 | E,6 | F,4 F,2 | G,2 G,,4 | z6 | %36
w: not- * te,|va- * do\_a dor-|mir.|||||Vog-|lio\_an-|da- re\_a|let- to,||
 z6 | E,4 E,2 | F,4 F,2 | =G,2 G,2 G,2 | A,2 A,,4 | =A,4 A,2 | B,4 _A,2 | G,2 (F,2 =E,2) | F,6 | %45
w: |vog- lio\_an|da- re,|an- da- re\_a|let- to,|vog- lio\_an-|da- re|a dor- *|mir.|
!p! z6 | E,2 D,2 B,,2 | E,2 D,2 B,,2 |!f! D,2 C,2 B,,2 | F,6 | F,4 F,2 | F,2 F,2 F,2 | F,4 F,2 | %53
w: |Vog- lio an-|da- re, an|da- re\_a dor-|mir.|Sen- to\_il|son- no che|m'as- sas-|
 F,2!p! F,4 | F,4 F,2 | F,4 F,2 | F,2 F,2 F,2 | !fermata!F,6 | z6 | z6 | z6 | z6 |!f! B,,4 C,2 | %63
w: si- na.|Buo- na|not- te,|vog- lio par-|tir.|||||Buo- na|
 (D,2 E,2) F,2 | (G,E,) F,2 F,,2 | B,,6 | z6 | z6 | z6 |!f! z6 | B,,4 C,2 | (D,2 E,2) F,2 | %72
w: not- * te|va- * do\_a dor-|mir.|||||Buo- na|not- * te|
 G,E, F,2 F,,2 | B,,6 | z6 | E,G, F,2 F,,2 | B,,6 :| %77
w: va- * do\_a dor-|mir,||va- * do\_a dor-|mir.|

